shared/images/iconfont/15-kb-iconfont-chat-16.svg

<?xml version="1.0" encoding="UTF-8"?>
<svg width="16px" height="16px" viewBox="0 0 16 16" version="1.1" xmlns="http://www.w3.org/2000/svg" xmlns:xlink="http://www.w3.org/1999/xlink">
    <!-- Generator: sketchtool 57.1 (101010) - https://sketch.com -->
    <title>8159125F-74A5-4624-A636-6168F19730AE</title>
    <desc>Created with sketchtool.</desc>
    <g id="Symbols" stroke="none" stroke-width="1" fill="none" fill-rule="evenodd">
        <g id="15-kb-iconfont-chat-16">
            <g>
                <rect id="icon-area" opacity="0" x="0" y="0" width="16" height="16"></rect>
                <path d="M15.4765807,7.22714887 C15.8132014,7.99596512 16,8.84552975 16,9.73881756 C16,10.8582714 15.7394091,11.9289174 15.1926057,12.8187236 C14.4839485,13.9719676 15.9737534,14.5201183 15.9737534,15.2040552 C15.9737534,15.8147801 15.5788052,15.9949941 14.625805,15.9949941 C13.4640821,15.9949941 10.9956553,16 9.74769377,16 C8.87325357,16 8.04076628,15.8202512 7.28505429,15.4956422 C11.7619507,15.3429195 15.3589103,11.7188987 15.4765807,7.22714887 Z M7,-8.8817842e-15 C10.8662669,-8.8817842e-15 14,3.13357653 14,6.99965019 C14,10.8657239 10.8662669,14 7,14 L5.76203984,13.9991496 C4.7105842,13.9979992 3.45362353,13.9959771 2.47184168,13.9949852 L1.53853073,13.9944031 C0.471564218,13.9944031 0.0293853073,13.7929139 0.0293853073,13.1100895 C0.0293853073,12.34541 1.69735132,11.7325471 0.903948026,10.4431563 C0.291754123,9.44830343 -5.68434189e-14,8.25126181 -5.68434189e-14,6.99965019 C-5.68434189e-14,3.13357653 3.13373313,-8.8817842e-15 7,-8.8817842e-15 Z M6.23032968,8 L5.53675133,8 C4.96547925,8 4.49406969,8.46718113 4.49406969,9.04347826 C4.49406969,9.62379323 4.96089416,10.0869565 5.53675133,10.0869565 L6.23032968,10.0869565 C6.80160176,10.0869565 7.27301133,9.61977539 7.27301133,9.04347826 C7.27301133,8.46316329 6.80618685,8 6.23032968,8 Z M8.7043234,5 L5.14696385,5 C4.78643133,5 4.49406969,5.44779333 4.49406969,6 C4.49406969,6.55220667 4.78643133,7 5.14696385,7 L8.7043234,7 C9.06485591,7 9.35721756,6.55220667 9.35721756,6 C9.35721756,5.44779333 9.06485591,5 8.7043234,5 Z" id="Combined-Shape" fill="#000000"></path>
            </g>
        </g>
    </g>
</svg>

<svg xmlns="http://www.w3.org/2000/svg" width="16" height="16" viewBox="0 0 16 16">
    <path fill="#000" fill-rule="evenodd" d="M15.477 7.227c.336.769.523 1.619.523 2.512 0 1.12-.26 2.19-.807 3.08-.71 1.153.78 1.701.78 2.385 0 .61-.394.791-1.347.791-1.162 0-3.63.005-4.878.005-.875 0-1.707-.18-2.463-.504 4.477-.153 8.074-3.777 8.192-8.269zM7 0a7 7 0 0 1 0 14H5.762l-3.29-.005h-.933c-1.067 0-1.51-.202-1.51-.885 0-.765 1.668-1.377.875-2.667C.292 9.448 0 8.251 0 7a7 7 0 0 1 7-7zm-.77 8h-.693c-.572 0-1.043.467-1.043 1.043 0 .58.467 1.044 1.043 1.044h.693c.572 0 1.043-.467 1.043-1.044A1.04 1.04 0 0 0 6.23 8zm2.474-3H5.147c-.36 0-.653.448-.653 1s.292 1 .653 1h3.557c.36 0 .653-.448.653-1s-.292-1-.653-1z"/>
</svg>
